X:1
T:Title
%%score { ( 1 3 ) | ( 2 4 ) }
L:1/8
M:3/4
K:Ab
V:1 treble nm="Grand Piano"
V:3 treble 
V:2 bass 
V:4 bass 
V:1
 z2 z2[Q:1/4=108] E2 | A4 (3CDE | F2 E2 C2 | E2 E2 E2 | [CE]4 [CE]2 | [CA]3 [CG] [CF]2 | %6
 [EB]2 [EB]2 [=DB]2 | E6- | E4 z2 | [A,CA]4 (3CDE | F2 E2 C2 | E2 E2 E2 | [CE]4 [CE]2 | F3 G A2 | %14
 c2 E2 B2 | [CA]6- |[M:2/4] [CA]4 |[M:1/4] c2 |[M:3/4] c4 (3C=EG | [=Ec]2 [EB]2 [EG]2 | %20
 [GB]2 [FA]2 [=EG]2 | A4 B2 | B4 (3B,=DF | [=DB]2 [DA]2 [DF]2 | E6- | E4 z2 | [A,CA]4 (3EAc | %27
 [EAe]2 [EGd]2 [EAc]2 | [DFB]2 [DFB]2 [A,DF]2 |[M:4/4] [_CFA]6 [A,CF]2 | %30
[M:3/4] [A,CE]3 [CEA] [EAc]2 | [FGd]2 [EGc]2 [DGB]2 | [CEA]6- |[M:2/4] [CEA]4 |] %34
V:2
 z2 z2 E,2 | A,4 (3C,D,E, | F,2 E,2 C,2 | [E,G,B,]2 [E,A,C]2 [E,B,D]2 | [A,,A,]4 [A,,E,]2 | %5
 [F,,F,]3 [G,,=E,] [A,,F,]2 | [B,,G,]2 [B,,F,]2 [B,,A,]2 | E,2- [E,-G,]2 [E,-A,]2 | %8
 [E,-B,]2 [E,A,]2 E,2 | A,,4 (3C,D,E, | F,2 E,2 C,2 | [E,G,B,]2 [E,A,C]2 [E,B,D]2 | %12
 [A,,A,]4 [A,,A,]2 | [D,A,D]3 [D,G,D] [=D,F,_C]2 | [E,A,C]2 [E,A,C]2 [E,G,D]2 | [A,,A,]6- | %16
[M:2/4] [A,,A,]4 |[M:1/4] [C,C]2 |[M:3/4] [C,C]4 (3C,=E,G, | [C,G,]2 [C,G,]2 [C,C]2 | %20
 [C,C]2 [C,C]2 [C,C]2 | [F,CF]4 [B,,B,]2 | [B,,B,]4 (3B,,=D,F, | [B,,F,]2 [B,,F,]2 [B,,A,]2 | %24
 G,2 z2 z2 | z6 | A,,4 (3E,A,C | C2 B,2 A,2 | E,2 D,2 D,2 |[M:4/4] =D,6 D,2 |[M:3/4] E,3 E, E,2 | %31
 E,2 E,2 E,2 | A,,6- |[M:2/4] A,,4 |] %34
V:3
 x6 | x6 | x6 | x6 | x6 | x6 | x6 | z2 B,2 C2 | D2 C2 [G,B,E]2 | x6 | x6 | x6 | x6 | x6 | x6 | x6 | %16
[M:2/4] x4 |[M:1/4] x2 |[M:3/4] x6 | x6 | x6 | x6 | x6 | x6 | z2 D2 C2 | B,4 [G,DE]2 | x6 | x6 | %28
 x6 |[M:4/4] x8 |[M:3/4] x6 | x6 | x6 |[M:2/4] x4 |] %34
V:4
 x6 | x6 | x6 | x6 | x6 | x6 | x6 | G,2 z2 z2 | x6 | x6 | x6 | x6 | x6 | x6 | x6 | x6 |[M:2/4] x4 | %17
[M:1/4] x2 |[M:3/4] x6 | x6 | x6 | x6 | x6 | x6 | E,2- [E,-B,]2 [E,-A,]2 | [E,G,]4 E,2 | x6 | x6 | %28
 x6 |[M:4/4] x8 |[M:3/4] x6 | x6 | x6 |[M:2/4] x4 |] %34

